X:289
T:Ice on the Pond
M:4/4
R:Reel
K:Em
"Em"E3F EDEF|GFGA "A7"BAB^c|"D"d2(3AB^c d2A2|"D"B^cdc BAGF|
"Em"E3F EDEF|GFGA "A7"BAB^c|"D"d2(3AB^c d2A2|BAGF "Em" E2D2:|
|:"G"G2DGB2GB|d2Bd gfed|"C"c2Ac "G"BcdB|"Am"cBAG "D7"FDEF|
"G"G2DGB2GB|d2Bd gfed|"C"c2Ac "G"BcdB|"D7"cBAF "G"G4:|
